X:113
T:New La Chasse. RHu.113
S:R.Hughes MS,1823,Whitchurch,Shrops.
A:Whitchurch , Shropshire
Z:Neil Brookes 2007
M:6/8
L:1/8
Q:3/8=100
K:D
A|d>ed f>af|e>ded2e|f>gf f<af|g>fg f2a|!
d’aa aff|fdd dAA|dfa ab/a/g/f/|e/a/^g/a/b/a/e2||!
c/d/|eee e<ae|d>cd c2e|a>^gf e>dc|c3B2c/d/|!
eee e<ae|e<fd c<dB|Aaaa2b|gggg2a|!
ffff2g|eeee2f|d<ed f<af|e>ded2e|!
f>gf f<af|g>fg f2a|d’aa aff|fdd dAA|!
B2g f>ge|{d}d’3{B}b3|afd e>de|dfa d’>c’b|!
a2f e>de|d2fd2f|dd’d’ d’d’d’|d’2zd’2z|d’3-d’2|]

